Papirus/64x64/apps/synergy-mod.svg

<svg width="64" height="64" version="1.1" xmlns="http://www.w3.org/2000/svg">
 <path d="m31.707327 4.0014094-0.02344 0.01562c-15.363426 0.1703955-27.683327 12.578894-27.683327 27.98332 0 15.511623 12.487697 27.99932 27.99932 27.99932 15.276829 0 27.593329-12.119506 27.96332-27.303337 0 0 0.0242-0.478448 0.03516-0.695303v-21.999465c0-3.3239196-2.675935-5.9998546-5.999855-5.9998546h-21.999465z" style="fill:#57b339"/>
 <path d="m 31.707031,4.0019531 -0.02344,0.015625 C 16.320168,4.1879736 4,16.595574 4,32 4,32.112878 4.011179,32.222773 4.017578,32.333984 4.3677172,17.240427 16.542914,5.1855031 31.683594,5.0175781 L 31.707031,5.0019531 31.708984,5 H 54 c 3.32392,0 6,2.6760804 6,6 V 10 C 60,6.6760804 57.32392,4.0019531 54,4.0019531 H 31.708984 Z" style="fill:#ffffff;opacity:.2"/>
 <path d="m59.99864 31.000729-0.036 0.695983c-0.369991 15.183631-12.685691 27.303337-27.96332 27.303337-15.177831 0-27.427334-11.96571-27.949321-27.011344-0.0112 0.337992-0.049999 0.669984-0.049999 1.011975 2e-7 15.511623 12.487697 27.99932 27.99932 27.99932 15.277629 0 27.593329-12.119705 27.96332-27.303337l0.036-0.695983z" style="opacity:.2"/>
 <path d="m31.998047 13.002a20 20 0 0 0-8.998047 2.142578v8.480469a13 13 0 0 1 9-3.625v4a9 9 0 0 0-8.472656 6h-4.527344v-12.167969a20 20 0 0 0-7.001953 15.169922 20 20 0 0 0 2.144531 8.998047h8.482422a13 13 0 0 1-3.625-9h4a9 9 0 0 0 6 8.472656v4.527344h-12.169922a20 20 0 0 0 15.167969 7.001953 20 20 0 0 0 9.001953-2.146484v-8.480469a13 13 0 0 1-9 3.625v-4a9 9 0 0 0 8.472656-6h4.527344v12.167969a20 20 0 0 0 6.998047-15.166016 20 20 0 0 0-2.144531-9.001953h-8.478516a13 13 0 0 1 3.625 9h-4a9 9 0 0 0-6-8.472656v-4.527344h12.166016a20 20 0 0 0-15.167969-6.998047zm2e-3 13.998047a6 6 0 0 1 6 6 6 6 0 0 1-6 6 6 6 0 0 1-6-6 6 6 0 0 1 6-6z" style="opacity:.2"/>
 <path d="m31.998047 12.001953a20 20 0 0 0-8.998047 2.142578v8.480469a13 13 0 0 1 9-3.625v4a9 9 0 0 0-8.472656 6h-4.527344v-12.167969a20 20 0 0 0-7.001953 15.169922 20 20 0 0 0 2.144531 8.998047h8.482422a13 13 0 0 1-3.625-9h4a9 9 0 0 0 6 8.472656v4.527344h-12.169922a20 20 0 0 0 15.167969 7.001953 20 20 0 0 0 9.001953-2.146484v-8.480469a13 13 0 0 1-9 3.625v-4a9 9 0 0 0 8.472656-6h4.527344v12.167969a20 20 0 0 0 6.998047-15.166016 20 20 0 0 0-2.144531-9.001953h-8.478516a13 13 0 0 1 3.625 9h-4a9 9 0 0 0-6-8.472656v-4.527344h12.166016a20 20 0 0 0-15.167969-6.998047zm0.001953 13.998047a6 6 0 0 1 6 6 6 6 0 0 1-6 6 6 6 0 0 1-6-6 6 6 0 0 1 6-6z" style="fill:#ffffff"/>
</svg>

<?xml version="1.0" encoding="UTF-8" standalone="no"?>
<svg
   id="_图层_1"
   version="1.1"
   viewBox="0 0 64 64" width="64" height="64"
   sodipodi:docname="synergy-mod.svg"
   xml:space="preserve"
   inkscape:version="1.4 (e7c3feb100, 2024-10-09)"
   xmlns:inkscape="http://www.inkscape.org/namespaces/inkscape"
   xmlns:sodipodi="http://sodipodi.sourceforge.net/DTD/sodipodi-0.dtd"
   xmlns:xlink="http://www.w3.org/1999/xlink"
   xmlns="http://www.w3.org/2000/svg"
   xmlns:svg="http://www.w3.org/2000/svg"><sodipodi:namedview
     id="namedview26"
     pagecolor="#505050"
     bordercolor="#eeeeee"
     borderopacity="1"
     inkscape:showpageshadow="0"
     inkscape:pageopacity="0"
     inkscape:pagecheckerboard="0"
     inkscape:deskcolor="#505050"
     inkscape:zoom="10.6875"
     inkscape:cx="32"
     inkscape:cy="32"
     inkscape:window-width="1920"
     inkscape:window-height="939"
     inkscape:window-x="0"
     inkscape:window-y="34"
     inkscape:window-maximized="1"
     inkscape:current-layer="_图层_1" /><!-- Generator: Adobe Illustrator 29.0.1, SVG Export Plug-In . SVG Version: 2.1.0 Build 192)  --><defs
     id="defs6"><style
       id="style1">
      .st0 {
        fill-opacity: .5;
      }

      .st0, .st1, .st2, .st3, .st4, .st5, .st6, .st7 {
        fill: #fff;
      }

      .st8 {
        fill: #133c9a;
      }

      .st2, .st9 {
        display: none;
      }

      .st3 {
        fill-opacity: .2;
      }

      .st4 {
        fill-opacity: .9;
      }

      .st10 {
        fill: #3370ff;
      }

      .st11 {
        fill: url(#_未命名的渐变_3);
      }

      .st12 {
        fill: url(#_未命名的渐变);
      }

      .st5 {
        fill-opacity: .3;
      }

      .st6 {
        fill-opacity: 0;
      }

      .st7 {
        fill-opacity: .7;
      }

      .st13 {
        fill: #00d6b9;
      }

      .st14 {
        fill: url(#_未命名的渐变_2);
      }
    </style><radialGradient
       id="_未命名的渐变"
       data-name="未命名的渐变"
       cx="123.9"
       cy="-40.2"
       fx="123.9"
       fy="-40.2"
       r="59.4"
       gradientTransform="translate(-26.8 25.5) scale(.6 -.7)"
       gradientUnits="userSpaceOnUse"><stop
         offset="0"
         stop-color="#db202e"
         id="stop1" /><stop
         offset="1"
         stop-color="#e01b24"
         id="stop2" /></radialGradient><radialGradient
       id="_未命名的渐变_2"
       data-name="未命名的渐变 2"
       cx="67.6"
       cy="26.8"
       fx="67.6"
       fy="26.8"
       r="105.2"
       gradientTransform="translate(-26.6 25.3) scale(.6 -.7)"
       gradientUnits="userSpaceOnUse"><stop
         offset="0"
         stop-color="#ffb648"
         id="stop3" /><stop
         offset="1"
         stop-color="#ff7800"
         stop-opacity="0"
         id="stop4" /></radialGradient><radialGradient
       id="_未命名的渐变_3"
       data-name="未命名的渐变 3"
       cx="61.7"
       cy="18.6"
       fx="61.7"
       fy="18.6"
       r="68"
       gradientTransform="translate(-26.8 25.8) scale(.6 -.7)"
       gradientUnits="userSpaceOnUse"><stop
         offset="0"
         stop-color="#c64600"
         id="stop5" /><stop
         offset="1"
         stop-color="#a51d2d"
         id="stop6" /></radialGradient><linearGradient
       id="linearGradient1261"><stop
         style="stop-color:#4f4f4f"
         offset="0"
         id="stop1-7" /><stop
         style="stop-color:#3f3f3f"
         offset="1"
         id="stop2-0" /></linearGradient><linearGradient
       id="linearGradient1263"
       x1="34.241"
       x2="37.169"
       y1="38.945"
       y2="30.342"
       gradientTransform="matrix(1.3919157,0,0,1.3888889,-1.321022,-0.4865665)"
       gradientUnits="userSpaceOnUse"
       xlink:href="#linearGradient1261" /></defs><path
     class="st1"
     d="M47.5,64.1H13.8c-7.6,0-13.8-6.3-13.8-13.8V13.7C0,6.2,6.2,0,13.7,0h36.6c7.5,0,13.7,6.2,13.7,13.7v36.6c0,7.5-6.2,13.7-13.7,13.7h-2.9.1Z"
     id="path6"
     style="fill:#57b339;fill-opacity:1" /><g
     id="g26"
     transform="matrix(1.1403509,0,0,1.1559493,-4.3976608,-4.5867099)"><path
       d="M 31.998047,13.002 A 20,20 0 0 0 23,15.144578 v 8.480469 a 13,13 0 0 1 9,-3.625 v 4 a 9,9 0 0 0 -8.472656,6 H 19 V 17.832078 A 20,20 0 0 0 11.998047,33.002 20,20 0 0 0 14.142578,42.000047 H 22.625 a 13,13 0 0 1 -3.625,-9 h 4 a 9,9 0 0 0 6,8.472656 v 4.527344 H 16.830078 A 20,20 0 0 0 31.998047,53.002 20,20 0 0 0 41,50.855516 v -8.480469 a 13,13 0 0 1 -9,3.625 v -4 a 9,9 0 0 0 8.472656,-6 H 45 V 48.168016 A 20,20 0 0 0 51.998047,33.002 20,20 0 0 0 49.853516,24.000047 H 41.375 a 13,13 0 0 1 3.625,9 H 41 A 9,9 0 0 0 35,24.527391 V 20.000047 H 47.166016 A 20,20 0 0 0 31.998047,13.002 Z m 0.002,13.998047 a 6,6 0 0 1 6,6 6,6 0 0 1 -6,6 6,6 0 0 1 -6,-6 6,6 0 0 1 6,-6 z"
       style="opacity:0.2"
       id="path4" /><path
       d="M 31.998047,12.001953 A 20,20 0 0 0 23,14.144531 V 22.625 A 13,13 0 0 1 32,19 v 4 a 9,9 0 0 0 -8.472656,6 H 19 V 16.832031 A 20,20 0 0 0 11.998047,32.001953 20,20 0 0 0 14.142578,41 H 22.625 A 13,13 0 0 1 19,32 h 4 a 9,9 0 0 0 6,8.472656 V 45 H 16.830078 A 20,20 0 0 0 31.998047,52.001953 20,20 0 0 0 41,49.855469 V 41.375 A 13,13 0 0 1 32,45 v -4 a 9,9 0 0 0 8.472656,-6 H 45 V 47.167969 A 20,20 0 0 0 51.998047,32.001953 20,20 0 0 0 49.853516,23 H 41.375 A 13,13 0 0 1 45,32 H 41 A 9,9 0 0 0 35,23.527344 V 19 H 47.166016 A 20,20 0 0 0 31.998047,12.001953 Z M 32,26 a 6,6 0 0 1 6,6 6,6 0 0 1 -6,6 6,6 0 0 1 -6,-6 6,6 0 0 1 6,-6 z"
       style="fill:#ffffff"
       id="path5" /></g></svg>
